X:1
T:St. Constantine, 65.65
T:St. Constantine, 65.65
T:William Henry Monk, 1861
T:Public Domain Courtesy of the Cyber Hymnal™
C:William Henry Monk, 1861
Z:Public Domain
Z:Courtesy of the Cyber Hymnal™
%%score 1 2
L:1/8
Q:1/4=113
M:none
K:D
V:1 treble 
V:2 bass 
V:1
|: [DF]2 [CE]2 [DG]2 [DF]2 | [CE]4 D4 | [A,E]2 [EA]2 [E^G]2 [DB]2 | [CA]8 | %4
 [EG]2 [DF]2 [DB]2 [DA]2 | [CG]4 [DF]4 | [DF]2 E2 [DG]2 [EG]2 | [CF]8"^Play 4 times" :| %8
 [DF]2 E2 [DG]2 [DG]2 | [DF]8 |] %10
V:2
|: [D,A,]2 [A,,A,]2 [B,,G,]2 [D,A,]2 | [A,,G,]4 [D,F,]4 | [C,A,]2 [A,,C]2 [E,B,]2 [E,^G,]2 | %3
 [A,,A,]8 | [C,A,]2 [D,A,]2 G,2 [F,A,]2 | [E,A,]4 [D,A,]4 | [D,A,]2 [C,A,]2 [B,,B,]2 [E,B,]2 | %7
 [F,^A,]8"^Play 4 times" :| [D,A,]2 [C,A,]2 [B,,B,]2 [G,,B,]2 | [D,A,]8 |] %10

